X:1
T:I’m a Pilgrim
T:I’m a Pilgrim
T:Italian Tune
T:Mary S. B. Dana, 1841
T:Public Domain Courtesy of the Cyber Hymnal™
C:Italian Tune
Z:Public Domain
Z:Courtesy of the Cyber Hymnal™
%%score ( 1 2 ) ( 3 4 )
L:1/8
Q:1/4=95
M:4/4
K:G
V:1 treble 
V:2 treble 
V:3 bass 
V:4 bass 
V:1
 [DG][DA] | (BG) [DG]3 [DG][DA][DB] | (dc) [FA]4 [Bd][Ac] | [GB][GB][GB][GB] [Bd][Ac][FA][FB] | %4
w: 1.~I’m a|pil- * grim, and I’m a|strang- * er, I can|tar- ry, I can tar- ry but a|
w: 2.~There the|glo- * ry is ev- er|shin- * ing; Oh, my|long- ing heart, my long- ing heart is|
w: 3.~There’s the|ci- * ty to which I|jour- * ney; My Re-|deem- er, my Re- deem- er is its|
 G4 z [DG][DF][DG] | [FA]2 [Fd]3 [Ac][GB][FA] | (G>A) [GB]3 [DG][DF][DG] | %7
w: night; Do not de-|tain me, for I am|go- * ing To where the|
w: there; Here in this|count- ry so dark and|drear- * y, I long have|
w: light; There is no|sor- row nor an- y|sigh- * ing, Nor an- y|
 [FA]2 [Fd]3 [Ac][GB][FA] | (G>A) [GB]3 z ||"^Refrain" [DG][DA] | (BG) [DG]3 [DG][DA][DB] | %11
w: fount- ains are ev- er|flow- * ing.|||
w: wan- dered for- lorn and|wear- * y.|I’m a|pil- * grim, and I’m a|
w: tears there, nor an- y|dy- * ing.|||
 (dc) [FA]4 [Bd][Ac] | [GB][GB][GB][GB] [Bd][Ac][FA][FB] | G6 |] %14
w: |||
w: strang- * er; I can|tar- ry, I can tar- ry but a|night.|
w: |||
V:2
 x2 | D2 x6 | F2 x6 | x8 | G4 x4 | x8 | G2 x6 | x8 | G2 x4 || x2 | D2 x6 | F2 x6 | x8 | G6 |] %14
V:3
 [G,B,][G,C] | (DB,) [G,B,]3 [G,B,][F,A,]G, | [D,A,]2 [D,D]4 [D,D][D,D] | %3
 [G,D][G,D][G,D][G,D] [D,D][D,D][D,C][D,C] | [G,B,]4 z [G,B,][A,C][G,B,] | %5
 [D,A,]2 [D,A,]3 [D,D][D,D][D,C] | (B,>C) [G,D]3 [G,B,][A,C][G,B,] | %7
 [D,A,]2 [D,A,]3 [D,D][D,D][D,C] | (B,>C) [G,D]3 z || [G,B,][G,C] | (DB,) [G,B,]3 [G,B,][F,A,]G, | %11
 [D,A,]2 [D,D]4 [D,D][D,D] | [G,D][G,D][G,D][G,D] [D,D][D,D][D,C][D,C] | [G,B,]6 |] %14
V:4
 x2 | G,2 x4 G, x | x8 | x8 | x8 | x8 | G,2 x6 | x8 | G,2 x4 || x2 | G,2 x4 G, x | x8 | x8 | x6 |] %14

